assets/moonshotai/mono.svg

<svg viewBox="0 0 24 24" xmlns="http://www.w3.org/2000/svg"><path d="m1.053 16.91 9.538 2.55a21 20.981 0 0 0 .06 2.031l5.956 1.592a12 11.99 0 0 1 -15.554-6.172m-1.02-5.79 11.352 3.035a21 20.981 0 0 0 -.469 2.01l10.817 2.89a12 11.99 0 0 1 -1.845 2.004l-19.23-5.142a12 11.99 0 0 1 -.625-4.796m1.593-5.146 11.947 3.194a21 20.981 0 0 0 -1.01 1.874l11.297 3.02a21 20.981 0 0 1 -.67 2.362l-11.55-3.087-11.515-3.079a12 11.99 0 0 1 1.499-4.285zm4.441-4.396 11.285 3.016a21 20.981 0 0 0 -1.688 1.719l7.824 2.091a21 20.981 0 0 1 .513 2.664l-21.894-5.852a12 11.99 0 0 1 3.96-3.638m15.613 3.286-14.458-3.863a12 11.99 0 0 1 14.458 3.863"/></svg>

<svg xmlns="http://www.w3.org/2000/svg" viewBox="0 0 24 24"><path d="m1.053 16.91 9.538 2.55a21 20.981 0 0 0 .06 2.031l5.956 1.592a12 11.99 0 0 1-15.554-6.172m-1.02-5.79 11.352 3.035a21 20.981 0 0 0-.469 2.01l10.817 2.89a12 11.99 0 0 1-1.845 2.004L.658 15.918a12 11.99 0 0 1-.625-4.796m1.593-5.146L13.573 9.17a21 20.981 0 0 0-1.01 1.874l11.297 3.02a21 20.981 0 0 1-.67 2.362l-11.55-3.087L.125 10.26a12 11.99 0 0 1 1.499-4.285zM6.067 1.58l11.285 3.016a21 20.981 0 0 0-1.688 1.719l7.824 2.091a21 20.981 0 0 1 .513 2.664L2.107 5.218a12 11.99 0 0 1 3.96-3.638M21.68 4.866 7.222 1.003A12 11.99 0 0 1 21.68 4.866"/></svg>
